X:269
T:score69
L:1/16
Q:1/4=96
M:4/4
I:linebreak $
K:D
 d2(fg a2fg aABc defg | f2)(de f2FG ABAG AFGA |$ G2)(BA G2FE FEDE FGAB | G2)(BA B2cd ABcd efga |$ %4
 f2)(de f2ed e)(cde fedc | d2)(Bc d2DE FGFE Fdcd |$ B2)(dc B2AG AGFG ABcd | B2)(dc d2cB cded cdBc | %8
 d2) z2 z4 z4 z4 |] %9
